**harm	**harte	**silbe	**silbe	**silbe	**rhyme	**timestamp	**phrase	**leadinstrument	**kern
*M4/4	*M4/4	*	*	*	*	*	*	*	*
*g:	*g:	*	*	*	*	*	*	*	*g:
*	*	*	*	*	*	*	*	*	*
*	*	*	*	*	*	*	*	*	*
*	*	*	*	*	*	*	*	*	*
*	*	*	*	*	*	*	*	*	*
1r;	N	.	.	.	.	0	.	r	1r;
=1	=1	=1	=1	=1	=1	=1	=1	=1	=1
*>Letter>A	*>Letter>A	*>Letter>A	*>Letter>A	*>Letter>A	*>Letter>A	*>Letter>A	*>Letter>A	*>Letter>A	*>Letter>A
*>Label>Intro	*>Label>Intro	*>Label>Intro	*>Label>Intro	*>Label>Intro	*>Label>Intro	*>Label>Intro	*>Label>Intro	*>Label>Intro	*>Label>Intro
1i	G:1	.	.	.	.	0.07	newline	r	1G 1b- 1dd
=2	=2	=2	=2	=2	=2	=2	=2	=2	=2
1i	G:1	.	.	.	.	1.786	.	r	1G 1b- 1dd
=3	=3	=3	=3	=3	=3	=3	=3	=3	=3
1vi	E:1	.	.	.	.	3.503	.	r	1E- 1g- 1b-
=4	=4	=4	=4	=4	=4	=4	=4	=4	=4
1vi	E:1	.	.	.	.	5.22	.	r	1E- 1g- 1b-
=5	=5	=5	=5	=5	=5	=5	=5	=5	=5
1i	G:1	.	.	.	.	6.937	newline	r	1G 1b- 1dd
=6	=6	=6	=6	=6	=6	=6	=6	=6	=6
1i	G:1	.	.	.	.	8.678	.	r	1G 1b- 1dd
=7	=7	=7	=7	=7	=7	=7	=7	=7	=7
1v	D:1	.	.	.	.	10.42	newline	r	1D 1f 1a
=8	=8	=8	=8	=8	=8	=8	=8	=8	=8
1v	D:1	.	.	.	.	12.169	.	r	1D 1f 1a
=9	=9	=9	=9	=9	=9	=9	=9	=9	=9
1r	N	.	.	.	.	13.918	.	r	1r
=10	=10	=10	=10	=10	=10	=10	=10	=10	=10
1r	N	.	.	.	.	15.667	.	r	1r
=11	=11	=11	=11	=11	=11	=11	=11	=11	=11
1r	N	.	.	.	.	17.416	newline	r	1r
=12	=12	=12	=12	=12	=12	=12	=12	=12	=12
1r	N	.	.	.	.	19.057	.	r	1r
=13	=13	=13	=13	=13	=13	=13	=13	=13	=13
1r	N	.	.	.	.	20.698	.	r	1r
=14	=14	=14	=14	=14	=14	=14	=14	=14	=14
1r	N	.	.	.	.	22.339	.	r	1r
=15	=15	=15	=15	=15	=15	=15	=15	=15	=15
*>Letter>B2	*>Letter>B2	*>Letter>B2	*>Letter>B2	*>Letter>B2	*>Letter>B2	*>Letter>B2	*>Letter>B2	*>Letter>B2	*>Letter>B2
*>Label>Intro	*>Label>Intro	*>Label>Intro	*>Label>Intro	*>Label>Intro	*>Label>Intro	*>Label>Intro	*>Label>Intro	*>Label>Intro	*>Label>Intro
*e-:	*e-:	*	*	*	*	*	*	*	*e-:
1i	E-:min	.	.	.	.	23.979	newline	guitar	1E- 1g- 1b-
=16	=16	=16	=16	=16	=16	=16	=16	=16	=16
1-VII	D-:maj	.	.	.	.	25.787	.	guitar	1D- 1f 1a-
=17	=17	=17	=17	=17	=17	=17	=17	=17	=17
1i	E-:min	.	.	.	.	27.595	.	guitar	1E- 1g- 1b-
=18	=18	=18	=18	=18	=18	=18	=18	=18	=18
1-VII	D-:maj	.	.	.	.	29.402	.	guitar	1D- 1f 1a-
=19	=19	=19	=19	=19	=19	=19	=19	=19	=19
1i	E-:min	.	.	.	.	31.21	newline	guitar	1E- 1g- 1b-
=20	=20	=20	=20	=20	=20	=20	=20	=20	=20
1-VII	D-:maj	.	.	.	.	32.978	.	guitar	1D- 1f 1a-
=21	=21	=21	=21	=21	=21	=21	=21	=21	=21
1i	E-:min	.	.	.	.	34.747	.	guitar	1E- 1g- 1b-
=22	=22	=22	=22	=22	=22	=22	=22	=22	=22
1-VII	D-:maj	.	.	.	.	36.515	.	guitar	1D- 1f 1a-
=23	=23	=23	=23	=23	=23	=23	=23	=23	=23
*>Letter>C	*>Letter>C	*>Letter>C	*>Letter>C	*>Letter>C	*>Letter>C	*>Letter>C	*>Letter>C	*>Letter>C	*>Letter>C
*>Label>Verse	*>Label>Verse	*>Label>Verse	*>Label>Verse	*>Label>Verse	*>Label>Verse	*>Label>Verse	*>Label>Verse	*>Label>Verse	*>Label>Verse
1i	E-:min	.	.	.	.	38.283	newline	voice	1E- 1g- 1b-
.	.	They	.	.	.	.	.	.	.
.	.	told	.	.	.	.	.	.	.
.	.	him	.	.	.	.	.	.	.
.	.	don't	.	.	.	.	.	.	.
.	.	you	.	.	.	.	.	.	.
.	.	e-	.	.	.	.	.	.	.
.	.	-ver	.	.	.	.	.	.	.
=24	=24	=24	=24	=24	=24	=24	=24	=24	=24
1-VII	D-:maj	come	.	.	.	39.944	.	voice	1D- 1f 1a-
.	.	a-	.	.	.	.	.	.	.
.	.	-round	.	.	.	.	.	.	.
.	.	here	.	.	A	.	.	.	.
.	.	.	.	.	.	.	.	.	.
.	.	Don't	.	.	.	.	.	.	.
=25	=25	=25	=25	=25	=25	=25	=25	=25	=25
1i	E-:min	want	.	.	.	41.605	.	voice	1E- 1g- 1b-
.	.	to	.	.	.	.	.	.	.
.	.	see	.	.	.	.	.	.	.
.	.	your	.	.	.	.	.	.	.
.	.	face	.	.	.	.	.	.	.
.	.	you	.	.	.	.	.	.	.
.	.	bet-	.	.	.	.	.	.	.
.	.	-ter	.	.	.	.	.	.	.
=26	=26	=26	=26	=26	=26	=26	=26	=26	=26
1-VII	D-:maj	dis-	.	.	.	43.266	.	voice	1D- 1f 1a-
.	.	-a-	.	.	.	.	.	.	.
.	.	-ppear	.	.	A	.	.	.	.
.	.	.	.	.	.	.	.	.	.
.	.	.	.	.	.	.	.	.	.
.	.	The	.	.	.	.	.	.	.
=27	=27	=27	=27	=27	=27	=27	=27	=27	=27
1-VI	C-:maj	fi-	.	.	.	44.926	newline	voice	1C-- 1e-- 1g--
.	.	-re's	.	.	.	.	.	.	.
.	.	in	.	.	.	.	.	.	.
.	.	their	.	.	.	.	.	.	.
.	.	eyes	.	.	.	.	.	.	.
.	.	and	.	.	.	.	.	.	.
.	.	their	.	.	.	.	.	.	.
=28	=28	=28	=28	=28	=28	=28	=28	=28	=28
1-VII	D-:maj	words	.	.	.	46.659	.	voice	1D- 1f 1a-
.	.	are	.	.	.	.	.	.	.
.	.	rea-	.	.	.	.	.	.	.
.	.	-lly	.	.	.	.	.	.	.
.	.	clear	.	.	A	.	.	.	.
.	.	So	So	.	.	.	.	.	.
=29	=29	=29	=29	=29	=29	=29	=29	=29	=29
1i	E-:min	beat	beat	.	B	48.392	.	voice	1E- 1g- 1b-
.	.	it	it	.	.	.	.	.	.
.	.	.	.	.	.	.	.	.	.
.	.	.	.	.	.	.	.	.	.
.	.	Just	Just	.	.	.	.	.	.
=30	=30	=30	=30	=30	=30	=30	=30	=30	=30
1-VII	D-:maj	beat	beat	.	B	50.125	.	voice	1D- 1f 1a-
.	.	it	it	.	.	.	.	.	.
.	.	.	.	.	.	.	.	.	.
.	.	.	.	.	.	.	.	.	.
=31	=31	=31	=31	=31	=31	=31	=31	=31	=31
1i	E-:min	.	.	.	.	51.858	newline	voice	1E- 1g- 1b-
.	.	You	.	.	.	.	.	.	.
.	.	bet-	.	.	.	.	.	.	.
.	.	-ter	.	.	.	.	.	.	.
.	.	run	.	.	.	.	.	.	.
.	.	you	.	.	.	.	.	.	.
.	.	bet-	.	.	.	.	.	.	.
.	.	-ter	.	.	.	.	.	.	.
=32	=32	=32	=32	=32	=32	=32	=32	=32	=32
1-VII	D-:maj	do	.	.	.	53.586	.	voice	1D- 1f 1a-
.	.	what	.	.	.	.	.	.	.
.	.	you	.	.	.	.	.	.	.
.	.	can	.	.	C	.	.	.	.
.	.	.	.	.	.	.	.	.	.
.	.	Don't	.	.	.	.	.	.	.
=33	=33	=33	=33	=33	=33	=33	=33	=33	=33
1i	E-:min	want	.	.	.	55.314	.	voice	1E- 1g- 1b-
.	.	to	.	.	.	.	.	.	.
.	.	see	.	.	.	.	.	.	.
.	.	no	.	.	.	.	.	.	.
.	.	blood	.	.	.	.	.	.	.
.	.	don't	.	.	.	.	.	.	.
.	.	be	.	.	.	.	.	.	.
.	.	a	.	.	.	.	.	.	.
=34	=34	=34	=34	=34	=34	=34	=34	=34	=34
1-VII	D-:maj	ma-	.	.	.	57.042	.	voice	1D- 1f 1a-
.	.	-cho	.	.	.	.	.	.	.
.	.	man	.	.	C	.	.	.	.
.	.	.	.	.	.	.	.	.	.
.	.	.	.	.	.	.	.	.	.
.	.	You	.	.	.	.	.	.	.
=35	=35	=35	=35	=35	=35	=35	=35	=35	=35
1-VI	C-:maj	want	.	.	.	58.77	newline	voice	1C-- 1e-- 1g--
.	.	to	.	.	.	.	.	.	.
.	.	be	.	.	.	.	.	.	.
.	.	tough	.	.	.	.	.	.	.
.	.	.	.	.	.	.	.	.	.
.	.	bet-	.	.	.	.	.	.	.
.	.	-ter	.	.	.	.	.	.	.
=36	=36	=36	=36	=36	=36	=36	=36	=36	=36
1-VII	D-:maj	do	.	.	.	60.545	.	voice	1D- 1f 1a-
.	.	what	.	.	.	.	.	.	.
.	.	you	.	.	.	.	.	.	.
.	.	can	.	.	C	.	.	.	.
.	.	So	So	.	.	.	.	.	.
=37	=37	=37	=37	=37	=37	=37	=37	=37	=37
1i	E-:min	beat	beat	.	B	62.319	.	voice	1E- 1g- 1b-
.	.	it	it	.	.	.	.	.	.
.	.	.	.	.	.	.	.	.	.
.	.	.	.	.	.	.	.	.	.
.	.	but	.	.	.	.	.	.	.
.	.	you	.	.	.	.	.	.	.
=38	=38	=38	=38	=38	=38	=38	=38	=38	=38
1-VII	D-:maj	want	.	.	.	64.094	.	voice	1D- 1f 1a-
.	.	to	.	.	.	.	.	.	.
.	.	be	.	.	.	.	.	.	.
.	.	bad	.	.	.	.	.	.	.
.	.	Just	.	.	.	.	.	.	.
=39	=39	=39	=39	=39	=39	=39	=39	=39	=39
*>Letter>B	*>Letter>B	*>Letter>B	*>Letter>B	*>Letter>B	*>Letter>B	*>Letter>B	*>Letter>B	*>Letter>B	*>Letter>B
*>Label>Chorus	*>Label>Chorus	*>Label>Chorus	*>Label>Chorus	*>Label>Chorus	*>Label>Chorus	*>Label>Chorus	*>Label>Chorus	*>Label>Chorus	*>Label>Chorus
1i	E-:min	beat	.	.	.	65.869	newline	voice	1E- 1g- 1b-
.	.	it	.	.	.	.	.	.	.
.	.	.	Beat	.	.	.	.	.	.
.	.	.	it	.	.	.	.	.	.
=40	=40	=40	=40	=40	=40	=40	=40	=40	=40
1-VII	D-:maj	Beat	.	.	B	67.548	.	voice	1D- 1f 1a-
.	.	it	.	.	.	.	.	.	.
.	.	.	Beat	.	B	.	.	.	.
.	.	.	it	.	.	.	.	.	.
.	.	.	.	.	.	.	.	.	.
.	.	No	No	.	.	.	.	.	.
=41	=41	=41	=41	=41	=41	=41	=41	=41	=41
1i	E-:min	_	_	.	.	69.227	.	voice	1E- 1g- 1b-
.	.	one	one	.	.	.	.	.	.
.	.	wants	wants	.	.	.	.	.	.
.	.	to	to	.	.	.	.	.	.
.	.	be	be	.	B	.	.	.	.
.	.	de-	de-	.	b	.	.	.	.
.	.	-feat	-feat-	.	B	.	.	.	.
=42	=42	=42	=42	=42	=42	=42	=42	=42	=42
1-VII	D-:maj	_	_	.	.	70.907	.	voice	1D- 1f 1a-
.	.	ed	-ed	.	.	.	.	.	.
.	.	.	.	.	.	.	.	.	.
.	.	.	.	.	.	.	.	.	.
.	.	.	.	.	.	.	.	.	.
.	.	Show	.	.	.	.	.	.	.
=43	=43	=43	=43	=43	=43	=43	=43	=43	=43
1i	E-:min	_	.	.	.	72.586	newline	voice	1E- 1g- 1b-
.	.	in'	.	.	.	.	.	.	.
.	.	how	.	.	.	.	.	.	.
.	.	.	.	.	.	.	.	.	.
.	.	fun-	.	.	.	.	.	.	.
.	.	-ky	.	.	b	.	.	.	.
.	.	.	.	.	.	.	.	.	.
.	.	strong	.	.	.	.	.	.	.
=44	=44	=44	=44	=44	=44	=44	=44	=44	=44
1-VII	D-:maj	_	.	.	.	74.312	.	voice	1D- 1f 1a-
.	.	is	.	.	.	.	.	.	.
.	.	your	.	.	.	.	.	.	.
.	.	.	.	.	.	.	.	.	.
.	.	fight	.	.	D	.	.	.	.
.	.	.	.	.	.	.	.	.	.
.	.	.	.	.	.	.	.	.	.
.	.	It	.	.	.	.	.	.	.
=45	=45	=45	=45	=45	=45	=45	=45	=45	=45
1i	E-:min	_	.	.	.	76.039	.	voice	1E- 1g- 1b-
.	.	does-	.	.	.	.	.	.	.
.	.	-n't	.	.	.	.	.	.	.
.	.	.	.	.	.	.	.	.	.
.	.	mat-	.	.	.	.	.	.	.
.	.	-ter	.	.	.	.	.	.	.
.	.	.	.	.	.	.	.	.	.
.	.	who's	.	.	.	.	.	.	.
=46	=46	=46	=46	=46	=46	=46	=46	=46	=46
1-VII	D-:maj	_	.	.	.	77.765	.	voice	1D- 1f 1a-
.	.	wrong	.	.	.	.	.	.	.
.	.	or	.	.	.	.	.	.	.
.	.	.	.	.	.	.	.	.	.
.	.	right	.	.	D	.	.	.	.
.	.	.	.	.	.	.	.	.	.
.	.	Just	.	.	.	.	.	.	.
=47	=47	=47	=47	=47	=47	=47	=47	=47	=47
1i	E-:min	beat	.	.	B	79.491	newline	voice	1E- 1g- 1b-
.	.	it	.	.	.	.	.	.	.
.	.	.	.	.	.	.	.	.	.
.	.	.	Beat	Beat	B	.	.	.	.
.	.	.	it	it	.	.	.	.	.
.	.	Just	.	.	.	.	.	.	.
.	.	.	.	.	.	.	.	.	.
=48	=48	=48	=48	=48	=48	=48	=48	=48	=48
1-VII	D-:maj	beat	.	.	B	81.221	.	voice	1D- 1f 1a-
.	.	it	.	.	.	.	.	.	.
.	.	.	beat	.	B	.	.	.	.
.	.	.	it	.	.	.	.	.	.
.	.	.	.	.	.	.	.	.	.
.	.	Just	.	.	.	.	.	.	.
=49	=49	=49	=49	=49	=49	=49	=49	=49	=49
1i	E-:min	beat	.	.	B	82.951	.	voice	1E- 1g- 1b-
.	.	it	.	.	.	.	.	.	.
.	.	.	.	.	.	.	.	.	.
.	.	.	Beat	Beat	B	.	.	.	.
.	.	.	it	it	.	.	.	.	.
.	.	Just	.	.	.	.	.	.	.
.	.	.	.	.	.	.	.	.	.
=50	=50	=50	=50	=50	=50	=50	=50	=50	=50
1-VII	D-:maj	beat	.	.	B	84.681	.	voice	1D- 1f 1a-
.	.	it	.	.	.	.	.	.	.
.	.	.	Beat	.	B	.	.	.	.
.	.	.	it	.	.	.	.	.	.
.	.	.	.	.	.	.	.	.	.
=51	=51	=51	=51	=51	=51	=51	=51	=51	=51
*>Letter>C	*>Letter>C	*>Letter>C	*>Letter>C	*>Letter>C	*>Letter>C	*>Letter>C	*>Letter>C	*>Letter>C	*>Letter>C
*>Label>Verse	*>Label>Verse	*>Label>Verse	*>Label>Verse	*>Label>Verse	*>Label>Verse	*>Label>Verse	*>Label>Verse	*>Label>Verse	*>Label>Verse
1i	E-:min	.	.	.	.	86.411	newline	voice	1E- 1g- 1b-
.	.	They're	.	.	.	.	.	.	.
.	.	out	.	.	.	.	.	.	.
.	.	to	.	.	.	.	.	.	.
.	.	get	.	.	.	.	.	.	.
.	.	you	.	.	.	.	.	.	.
.	.	bet-	.	.	.	.	.	.	.
.	.	-ter	.	.	.	.	.	.	.
=52	=52	=52	=52	=52	=52	=52	=52	=52	=52
1-VII	D-:maj	leave	.	.	.	88.159	.	voice	1D- 1f 1a-
.	.	while	.	.	.	.	.	.	.
.	.	you	.	.	.	.	.	.	.
.	.	can	.	.	C	.	.	.	.
.	.	.	.	.	.	.	.	.	.
.	.	Don't	.	.	.	.	.	.	.
=53	=53	=53	=53	=53	=53	=53	=53	=53	=53
1i	E-:min	want	.	.	.	89.907	.	voice	1E- 1g- 1b-
.	.	to	.	.	.	.	.	.	.
.	.	be	.	.	.	.	.	.	.
.	.	a	.	.	.	.	.	.	.
.	.	boy	.	.	.	.	.	.	.
.	.	you	.	.	.	.	.	.	.
.	.	want	.	.	.	.	.	.	.
.	.	to	.	.	.	.	.	.	.
=54	=54	=54	=54	=54	=54	=54	=54	=54	=54
1-VII	D-:maj	be	.	.	.	91.655	.	voice	1D- 1f 1a-
.	.	a	.	.	.	.	.	.	.
.	.	man	.	.	C	.	.	.	.
.	.	.	.	.	.	.	.	.	.
.	.	.	.	.	.	.	.	.	.
.	.	You	.	.	.	.	.	.	.
=55	=55	=55	=55	=55	=55	=55	=55	=55	=55
1-VI	C-:maj	want	.	.	.	93.403	newline	voice	1C-- 1e-- 1g--
.	.	to	.	.	.	.	.	.	.
.	.	stay	.	.	.	.	.	.	.
.	.	a-	.	.	.	.	.	.	.
.	.	-live	.	.	.	.	.	.	.
.	.	.	.	.	.	.	.	.	.
.	.	bet-	.	.	.	.	.	.	.
.	.	-ter	.	.	.	.	.	.	.
=56	=56	=56	=56	=56	=56	=56	=56	=56	=56
1-VII	D-:maj	do	.	.	.	95.109	.	voice	1D- 1f 1a-
.	.	what	.	.	.	.	.	.	.
.	.	you	.	.	.	.	.	.	.
.	.	can	.	.	C	.	.	.	.
.	.	.	.	.	.	.	.	.	.
.	.	So	.	.	.	.	.	.	.
=57	=57	=57	=57	=57	=57	=57	=57	=57	=57
1i	E-:min	beat	.	.	B	96.815	.	voice	1E- 1g- 1b-
.	.	it	.	.	.	.	.	.	.
.	.	.	.	.	.	.	.	.	.
.	.	.	.	.	.	.	.	.	.
.	.	Just	.	.	.	.	.	.	.
=58	=58	=58	=58	=58	=58	=58	=58	=58	=58
1-VII	D-:maj	beat	.	.	B	98.522	.	voice	1D- 1f 1a-
.	.	it	.	.	.	.	.	.	.
.	.	.	.	.	.	.	.	.	.
.	.	.	.	.	.	.	.	.	.
=59	=59	=59	=59	=59	=59	=59	=59	=59	=59
1i	E-:min	.	.	.	.	100.228	newline	voice	1E- 1g- 1b-
.	.	You	.	.	.	.	.	.	.
.	.	have	.	.	.	.	.	.	.
.	.	to	.	.	.	.	.	.	.
.	.	show	.	.	.	.	.	.	.
.	.	them	.	.	.	.	.	.	.
.	.	that	.	.	.	.	.	.	.
.	.	you're	.	.	.	.	.	.	.
=60	=60	=60	=60	=60	=60	=60	=60	=60	=60
1-VII	D-:maj	rea-	.	.	.	101.949	.	voice	1D- 1f 1a-
.	.	-lly	.	.	.	.	.	.	.
.	.	not	.	.	.	.	.	.	.
.	.	scared	.	.	E	.	.	.	.
.	.	.	.	.	.	.	.	.	.
.	.	You're	.	.	.	.	.	.	.
=61	=61	=61	=61	=61	=61	=61	=61	=61	=61
1i	E-:min	play-	.	.	.	103.671	.	voice	1E- 1g- 1b-
.	.	-in'	.	.	.	.	.	.	.
.	.	with	.	.	.	.	.	.	.
.	.	your	.	.	.	.	.	.	.
.	.	life	.	.	.	.	.	.	.
.	.	this	.	.	.	.	.	.	.
.	.	ain't	.	.	.	.	.	.	.
.	.	no	.	.	.	.	.	.	.
=62	=62	=62	=62	=62	=62	=62	=62	=62	=62
1-VII	D-:maj	truth	.	.	.	105.393	.	voice	1D- 1f 1a-
.	.	or	.	.	.	.	.	.	.
.	.	dare	.	.	E	.	.	.	.
.	.	.	.	.	.	.	.	.	.
.	.	.	.	.	.	.	.	.	.
.	.	They'll	.	.	.	.	.	.	.
=63	=63	=63	=63	=63	=63	=63	=63	=63	=63
1-VI	C-:maj	kick	.	.	.	107.115	newline	voice	1C-- 1e-- 1g--
.	.	you	.	.	.	.	.	.	.
.	.	then	.	.	.	.	.	.	.
.	.	they	.	.	.	.	.	.	.
.	.	beat	.	.	.	.	.	.	.
.	.	you	.	.	.	.	.	.	.
.	.	then	.	.	.	.	.	.	.
.	.	they'll	.	.	.	.	.	.	.
=64	=64	=64	=64	=64	=64	=64	=64	=64	=64
1-VII	D-:maj	tell	.	.	.	108.844	.	voice	1D- 1f 1a-
.	.	you	.	.	.	.	.	.	.
.	.	it's	.	.	.	.	.	.	.
.	.	fair	.	.	E	.	.	.	.
.	.	So	So	.	.	.	.	.	.
=65	=65	=65	=65	=65	=65	=65	=65	=65	=65
1i	E-:min	beat	beat	.	B	110.573	.	voice	1E- 1g- 1b-
.	.	it	it	.	.	.	.	.	.
.	.	.	.	.	.	.	.	.	.
.	.	.	.	.	.	.	.	.	.
.	.	But	.	.	.	.	.	.	.
.	.	you	.	.	.	.	.	.	.
=66	=66	=66	=66	=66	=66	=66	=66	=66	=66
1-VII	D-:maj	wan-	.	.	.	112.302	.	voice	1D- 1f 1a-
.	.	-na	.	.	.	.	.	.	.
.	.	be	.	.	.	.	.	.	.
.	.	bad	.	.	C	.	.	.	.
.	.	Just	.	.	.	.	.	.	.
=67	=67	=67	=67	=67	=67	=67	=67	=67	=67
*>Letter>B	*>Letter>B	*>Letter>B	*>Letter>B	*>Letter>B	*>Letter>B	*>Letter>B	*>Letter>B	*>Letter>B	*>Letter>B
*>Label>Chorus	*>Label>Chorus	*>Label>Chorus	*>Label>Chorus	*>Label>Chorus	*>Label>Chorus	*>Label>Chorus	*>Label>Chorus	*>Label>Chorus	*>Label>Chorus
1i	E-:min	beat	.	.	B	114.03	newline	voice	1E- 1g- 1b-
.	.	it	.	.	.	.	.	.	.
.	.	.	Beat	.	B	.	.	.	.
.	.	.	it	.	.	.	.	.	.
=68	=68	=68	=68	=68	=68	=68	=68	=68	=68
1-VII	D-:maj	Beat	.	.	B	115.752	.	voice	1D- 1f 1a-
.	.	it	.	.	.	.	.	.	.
.	.	.	Beat	.	B	.	.	.	.
.	.	.	it	.	.	.	.	.	.
.	.	.	.	.	.	.	.	.	.
.	.	No	No	.	.	.	.	.	.
=69	=69	=69	=69	=69	=69	=69	=69	=69	=69
1i	E-:min	_	_	.	.	117.474	.	voice	1E- 1g- 1b-
.	.	one	one	.	.	.	.	.	.
.	.	wants	wants	.	.	.	.	.	.
.	.	to	to	.	.	.	.	.	.
.	.	be	be	.	B	.	.	.	.
.	.	de-	de-	.	b	.	.	.	.
.	.	-feat	-feat-	.	B	.	.	.	.
=70	=70	=70	=70	=70	=70	=70	=70	=70	=70
1-VII	D-:maj	_	_	.	.	119.196	.	voice	1D- 1f 1a-
.	.	ed	-ed	.	.	.	.	.	.
.	.	.	.	.	.	.	.	.	.
.	.	.	.	.	.	.	.	.	.
.	.	.	.	.	.	.	.	.	.
.	.	Show	.	.	.	.	.	.	.
=71	=71	=71	=71	=71	=71	=71	=71	=71	=71
1i	E-:min	_	.	.	.	120.918	newline	voice	1E- 1g- 1b-
.	.	in'	.	.	.	.	.	.	.
.	.	how	.	.	.	.	.	.	.
.	.	.	.	.	.	.	.	.	.
.	.	fun-	.	.	.	.	.	.	.
.	.	-ky	.	.	b	.	.	.	.
.	.	.	.	.	.	.	.	.	.
.	.	strong	.	.	.	.	.	.	.
=72	=72	=72	=72	=72	=72	=72	=72	=72	=72
1-VII	D-:maj	_	.	.	.	122.648	.	voice	1D- 1f 1a-
.	.	is	.	.	.	.	.	.	.
.	.	your	.	.	.	.	.	.	.
.	.	.	.	.	.	.	.	.	.
.	.	fight	.	.	D	.	.	.	.
.	.	.	.	.	.	.	.	.	.
.	.	.	.	.	.	.	.	.	.
.	.	It	.	.	.	.	.	.	.
=73	=73	=73	=73	=73	=73	=73	=73	=73	=73
1i	E-:min	_	.	.	.	124.378	.	voice	1E- 1g- 1b-
.	.	does-	.	.	.	.	.	.	.
.	.	-n't	.	.	.	.	.	.	.
.	.	.	.	.	.	.	.	.	.
.	.	mat-	.	.	.	.	.	.	.
.	.	-ter	.	.	.	.	.	.	.
.	.	.	.	.	.	.	.	.	.
.	.	who's	.	.	.	.	.	.	.
=74	=74	=74	=74	=74	=74	=74	=74	=74	=74
1-VII	D-:maj	_	.	.	.	126.107	.	voice	1D- 1f 1a-
.	.	wrong	.	.	.	.	.	.	.
.	.	or	.	.	.	.	.	.	.
.	.	.	.	.	.	.	.	.	.
.	.	right	.	.	D	.	.	.	.
.	.	.	.	.	.	.	.	.	.
.	.	Just	.	.	.	.	.	.	.
=75	=75	=75	=75	=75	=75	=75	=75	=75	=75
1i	E-:min	beat	.	.	B	127.837	newline	voice	1E- 1g- 1b-
.	.	it	.	.	.	.	.	.	.
.	.	.	Beat	.	B	.	.	.	.
.	.	.	it	.	.	.	.	.	.
=76	=76	=76	=76	=76	=76	=76	=76	=76	=76
1-VII	D-:maj	Beat	.	.	B	129.585	.	voice	1D- 1f 1a-
.	.	it	.	.	.	.	.	.	.
.	.	.	Beat	.	B	.	.	.	.
.	.	.	it	.	.	.	.	.	.
.	.	.	.	.	.	.	.	.	.
.	.	No	No	.	.	.	.	.	.
=77	=77	=77	=77	=77	=77	=77	=77	=77	=77
1i	E-:min	_	_	.	.	131.333	.	voice	1E- 1g- 1b-
.	.	one	one	.	.	.	.	.	.
.	.	wants	wants	.	.	.	.	.	.
.	.	to	to	.	.	.	.	.	.
.	.	be	be	.	B	.	.	.	.
.	.	de-	de-	.	b	.	.	.	.
.	.	-feat	-feat-	.	B	.	.	.	.
=78	=78	=78	=78	=78	=78	=78	=78	=78	=78
1-VII	D-:maj	_	_	.	.	133.081	.	voice	1D- 1f 1a-
.	.	ed	-ed	.	.	.	.	.	.
.	.	.	.	.	.	.	.	.	.
.	.	.	.	.	.	.	.	.	.
.	.	.	.	.	.	.	.	.	.
.	.	Show	.	.	.	.	.	.	.
=79	=79	=79	=79	=79	=79	=79	=79	=79	=79
1i	E-:min	_	.	.	.	134.828	newline	voice	1E- 1g- 1b-
.	.	in'	.	.	.	.	.	.	.
.	.	how	.	.	.	.	.	.	.
.	.	.	.	.	.	.	.	.	.
.	.	fun-	.	.	.	.	.	.	.
.	.	-ky	.	.	b	.	.	.	.
.	.	.	.	.	.	.	.	.	.
.	.	strong	.	.	.	.	.	.	.
=80	=80	=80	=80	=80	=80	=80	=80	=80	=80
1-VII	D-:maj	_	.	.	.	136.533	.	voice	1D- 1f 1a-
.	.	is	.	.	.	.	.	.	.
.	.	your	.	.	.	.	.	.	.
.	.	.	.	.	.	.	.	.	.
.	.	fight	.	.	D	.	.	.	.
.	.	.	.	.	.	.	.	.	.
.	.	.	.	.	.	.	.	.	.
.	.	It	.	.	.	.	.	.	.
=81	=81	=81	=81	=81	=81	=81	=81	=81	=81
1i	E-:min	_	.	.	.	138.238	.	voice	1E- 1g- 1b-
.	.	does-	.	.	.	.	.	.	.
.	.	-n't	.	.	.	.	.	.	.
.	.	.	.	.	.	.	.	.	.
.	.	mat-	.	.	.	.	.	.	.
.	.	-ter	.	.	.	.	.	.	.
.	.	.	.	.	.	.	.	.	.
.	.	who's	.	.	.	.	.	.	.
=82	=82	=82	=82	=82	=82	=82	=82	=82	=82
1-VII	D-:maj	_	.	.	.	139.943	.	voice	1D- 1f 1a-
.	.	wrong	.	.	.	.	.	.	.
.	.	or	.	.	.	.	.	.	.
.	.	.	.	.	.	.	.	.	.
.	.	right	.	.	D	.	.	.	.
.	.	.	.	.	.	.	.	.	.
.	.	Just	.	.	.	.	.	.	.
=83	=83	=83	=83	=83	=83	=83	=83	=83	=83
*>Letter>D	*>Letter>D	*>Letter>D	*>Letter>D	*>Letter>D	*>Letter>D	*>Letter>D	*>Letter>D	*>Letter>D	*>Letter>D
*>Label>Instrumental	*>Label>Instrumental	*>Label>Instrumental	*>Label>Instrumental	*>Label>Instrumental	*>Label>Instrumental	*>Label>Instrumental	*>Label>Instrumental	*>Label>Instrumental	*>Label>Instrumental
1i	E-:min	Beat	.	.	.	141.648	newline	voice	1E- 1g- 1b-
.	.	it	.	.	.	.	.	.	.
.	.	Beat	.	.	.	.	.	.	.
.	.	it	.	.	.	.	.	.	.
.	.	Beat	.	.	.	.	.	.	.
.	.	it	.	.	.	.	.	.	.
.	.	Beat	.	.	.	.	.	.	.
.	.	it	.	.	.	.	.	.	.
=84	=84	=84	=84	=84	=84	=84	=84	=84	=84
1i	E-:min	.	.	.	.	143.379	.	voice	1E- 1g- 1b-
.	.	Beat	.	.	.	.	.	.	.
.	.	it	.	.	.	.	.	.	.
.	.	Beat	.	.	.	.	.	.	.
.	.	it	.	.	.	.	.	.	.
=85	=85	=85	=85	=85	=85	=85	=85	=85	=85
1i	E-:min	.	.	.	.	145.11	.	voice	1E- 1g- 1b-
=86	=86	=86	=86	=86	=86	=86	=86	=86	=86
1i	E-:min	.	.	.	.	146.841	.	voice	1E- 1g- 1b-
=87	=87	=87	=87	=87	=87	=87	=87	=87	=87
1i	E-:min	.	.	.	.	148.573	newline	voice	1E- 1g- 1b-
=88	=88	=88	=88	=88	=88	=88	=88	=88	=88
1i	E-:min	.	.	.	.	150.295	.	voice	1E- 1g- 1b-
.	.	Beat	.	.	.	.	.	.	.
.	.	it	.	.	.	.	.	.	.
.	.	Beat	.	.	.	.	.	.	.
.	.	it	.	.	.	.	.	.	.
=89	=89	=89	=89	=89	=89	=89	=89	=89	=89
1i	E-:min	.	.	.	.	152.018	.	voice	1E- 1g- 1b-
=90	=90	=90	=90	=90	=90	=90	=90	=90	=90
1i	E-:min	Beat	.	.	.	153.741	.	voice	1E- 1g- 1b-
.	.	it	.	.	.	.	.	.	.
.	.	Beat	.	.	.	.	.	.	.
.	.	it	.	.	.	.	.	.	.
.	.	.	.	.	.	.	.	.	.
=91	=91	=91	=91	=91	=91	=91	=91	=91	=91
1i	E-:min	.	.	.	.	155.464	newline	voice	1E- 1g- 1b-
=92	=92	=92	=92	=92	=92	=92	=92	=92	=92
1i	E-:min	.	.	.	.	157.192	.	voice	1E- 1g- 1b-
=93	=93	=93	=93	=93	=93	=93	=93	=93	=93
1i	E-:min	.	.	.	.	158.919	.	voice	1E- 1g- 1b-
=94	=94	=94	=94	=94	=94	=94	=94	=94	=94
1i	E-:min	Beat	.	.	.	160.647	.	voice	1E- 1g- 1b-
.	.	it	.	.	.	.	.	.	.
.	.	Beat	.	.	.	.	.	.	.
.	.	it	.	.	.	.	.	.	.
.	.	.	.	.	.	.	.	.	.
=95	=95	=95	=95	=95	=95	=95	=95	=95	=95
1i	E-:min	.	.	.	.	162.375	newline	voice	1E- 1g- 1b-
=96	=96	=96	=96	=96	=96	=96	=96	=96	=96
1i	E-:min	.	.	.	.	164.109	.	voice	1E- 1g- 1b-
=97	=97	=97	=97	=97	=97	=97	=97	=97	=97
1i	E-:min	.	.	.	.	165.843	.	voice	1E- 1g- 1b-
=98	=98	=98	=98	=98	=98	=98	=98	=98	=98
1i	E-:min	.	.	.	.	167.577	.	voice	1E- 1g- 1b-
=99	=99	=99	=99	=99	=99	=99	=99	=99	=99
*>Letter>C	*>Letter>C	*>Letter>C	*>Letter>C	*>Letter>C	*>Letter>C	*>Letter>C	*>Letter>C	*>Letter>C	*>Letter>C
*>Label>Solo	*>Label>Solo	*>Label>Solo	*>Label>Solo	*>Label>Solo	*>Label>Solo	*>Label>Solo	*>Label>Solo	*>Label>Solo	*>Label>Solo
1i	E-:min	.	.	.	.	169.31	newline	guitar	1E- 1g- 1b-
=100	=100	=100	=100	=100	=100	=100	=100	=100	=100
1-VII	D-:maj	.	.	.	.	171.043	.	guitar	1D- 1f 1a-
=101	=101	=101	=101	=101	=101	=101	=101	=101	=101
1i	E-:min	.	.	.	.	172.776	.	guitar	1E- 1g- 1b-
=102	=102	=102	=102	=102	=102	=102	=102	=102	=102
1-VII	D-:maj	.	.	.	.	174.509	.	guitar	1D- 1f 1a-
=103	=103	=103	=103	=103	=103	=103	=103	=103	=103
1-VI	C-:maj	.	.	.	.	176.242	newline	guitar	1C-- 1e-- 1g--
=104	=104	=104	=104	=104	=104	=104	=104	=104	=104
1-VII	D-:maj	.	.	.	.	177.967	.	guitar	1D- 1f 1a-
=105	=105	=105	=105	=105	=105	=105	=105	=105	=105
1i	E-:min	.	.	.	.	179.692	.	guitar	1E- 1g- 1b-
=106	=106	=106	=106	=106	=106	=106	=106	=106	=106
1-VII	D-:maj	.	.	.	.	181.416	.	guitar	1D- 1f 1a-
=107	=107	=107	=107	=107	=107	=107	=107	=107	=107
1i	E-:min	.	.	.	.	183.141	newline	guitar	1E- 1g- 1b-
=108	=108	=108	=108	=108	=108	=108	=108	=108	=108
1-VII	D-:maj	.	.	.	.	184.864	.	guitar	1D- 1f 1a-
=109	=109	=109	=109	=109	=109	=109	=109	=109	=109
1i	E-:min	.	.	.	.	186.587	.	guitar	1E- 1g- 1b-
=110	=110	=110	=110	=110	=110	=110	=110	=110	=110
1-VII	D-:maj	.	.	.	.	188.309	.	guitar	1D- 1f 1a-
=111	=111	=111	=111	=111	=111	=111	=111	=111	=111
1-VI	C-:maj	.	.	.	.	190.032	newline	guitar	1C-- 1e-- 1g--
=112	=112	=112	=112	=112	=112	=112	=112	=112	=112
1-VII	D-:maj	.	.	.	.	191.76	.	guitar	1D- 1f 1a-
=113	=113	=113	=113	=113	=113	=113	=113	=113	=113
1i	E-:min	.	.	.	.	193.488	.	guitar	1E- 1g- 1b-
=114	=114	=114	=114	=114	=114	=114	=114	=114	=114
1-VII	D-:maj	.	.	.	.	195.216	.	guitar	1D- 1f 1a-
=115	=115	=115	=115	=115	=115	=115	=115	=115	=115
*>Letter>B	*>Letter>B	*>Letter>B	*>Letter>B	*>Letter>B	*>Letter>B	*>Letter>B	*>Letter>B	*>Letter>B	*>Letter>B
*>Label>Chorus	*>Label>Chorus	*>Label>Chorus	*>Label>Chorus	*>Label>Chorus	*>Label>Chorus	*>Label>Chorus	*>Label>Chorus	*>Label>Chorus	*>Label>Chorus
1i	E-:min	beat	.	.	B	196.944	newline	voice	1E- 1g- 1b-
.	.	it	.	.	.	.	.	.	.
.	.	.	Beat	.	B	.	.	.	.
.	.	.	it	.	.	.	.	.	.
=116	=116	=116	=116	=116	=116	=116	=116	=116	=116
1-VII	D-:maj	Beat	.	.	B	198.686	.	voice	1D- 1f 1a-
.	.	it	.	.	.	.	.	.	.
.	.	.	Beat	.	B	.	.	.	.
.	.	.	it	.	.	.	.	.	.
.	.	.	.	.	.	.	.	.	.
.	.	No	No	.	.	.	.	.	.
=117	=117	=117	=117	=117	=117	=117	=117	=117	=117
1i	E-:min	_	_	.	.	200.428	.	voice	1E- 1g- 1b-
.	.	one	one	.	.	.	.	.	.
.	.	wants	wants	.	.	.	.	.	.
.	.	to	to	.	.	.	.	.	.
.	.	be	be	.	B	.	.	.	.
.	.	de-	de-	.	b	.	.	.	.
.	.	-feat	-feat-	.	.	.	B	.	.
=118	=118	=118	=118	=118	=118	=118	=118	=118	=118
1-VII	D-:maj	_	_	.	.	202.17	.	voice	1D- 1f 1a-
.	.	ed	-ed	.	.	.	.	.	.
.	.	.	.	.	.	.	.	.	.
.	.	.	.	.	.	.	.	.	.
.	.	.	.	.	.	.	.	.	.
.	.	Show	.	.	.	.	.	.	.
=119	=119	=119	=119	=119	=119	=119	=119	=119	=119
1i	E-:min	_	.	.	.	203.912	newline	voice	1E- 1g- 1b-
.	.	in'	.	.	.	.	.	.	.
.	.	how	.	.	.	.	.	.	.
.	.	.	.	.	.	.	.	.	.
.	.	fun-	.	.	.	.	.	.	.
.	.	-ky	.	.	b	.	.	.	.
.	.	.	.	.	.	.	.	.	.
.	.	strong	.	.	.	.	.	.	.
=120	=120	=120	=120	=120	=120	=120	=120	=120	=120
1-VII	D-:maj	_	.	.	.	205.628	.	voice	1D- 1f 1a-
.	.	is	.	.	.	.	.	.	.
.	.	your	.	.	.	.	.	.	.
.	.	.	.	.	.	.	.	.	.
.	.	fight	.	.	D	.	.	.	.
.	.	.	.	.	.	.	.	.	.
.	.	.	.	.	.	.	.	.	.
.	.	It	.	.	.	.	.	.	.
=121	=121	=121	=121	=121	=121	=121	=121	=121	=121
1i	E-:min	_	.	.	.	207.344	.	voice	1E- 1g- 1b-
.	.	does-	.	.	.	.	.	.	.
.	.	-n't	.	.	.	.	.	.	.
.	.	.	.	.	.	.	.	.	.
.	.	mat-	.	.	.	.	.	.	.
.	.	-ter	.	.	.	.	.	.	.
.	.	.	.	.	.	.	.	.	.
.	.	who's	.	.	.	.	.	.	.
=122	=122	=122	=122	=122	=122	=122	=122	=122	=122
1-VII	D-:maj	_	.	.	.	209.06	.	voice	1D- 1f 1a-
.	.	wrong	.	.	.	.	.	.	.
.	.	or	.	.	.	.	.	.	.
.	.	.	.	Who's	.	.	.	.	.
.	.	right	.	.	D	.	.	.	.
.	.	.	.	.	.	.	.	.	.
.	.	Just	.	right	.	.	.	.	.
.	.	.	.	_	.	.	.	.	.
=123	=123	=123	=123	=123	=123	=123	=123	=123	=123
1i	E-:min	beat	.	.	B	210.776	newline	voice	1E- 1g- 1b-
.	.	it	.	.	.	.	.	.	.
.	.	.	.	Hoo	.	.	.	.	.
.	.	.	Beat	_	B	.	.	.	.
.	.	.	it	.	.	.	.	.	.
=124	=124	=124	=124	=124	=124	=124	=124	=124	=124
1-VII	D-:maj	Beat	.	hoo	B	212.498	.	voice	1D- 1f 1a-
.	.	it	.	.	.	.	.	.	.
.	.	.	Beat	.	B	.	.	.	.
.	.	.	it	.	.	.	.	.	.
.	.	.	.	.	.	.	.	.	.
.	.	No	No	.	.	.	.	.	.
=125	=125	=125	=125	=125	=125	=125	=125	=125	=125
1i	E-:min	_	_	.	.	214.219	.	voice	1E- 1g- 1b-
.	.	one	one	.	.	.	.	.	.
.	.	wants	wants	.	.	.	.	.	.
.	.	to	to	.	.	.	.	.	.
.	.	be	be	.	B	.	.	.	.
.	.	de-	de-	.	b	.	.	.	.
.	.	-feat	-feat-	.	B	.	.	.	.
=126	=126	=126	=126	=126	=126	=126	=126	=126	=126
1-VII	D-:maj	_	_	.	.	215.941	.	voice	1D- 1f 1a-
.	.	ed	-ed	Oh	.	.	.	.	.
.	.	.	.	.	.	.	.	.	.
.	.	.	.	lord	.	.	.	.	.
.	.	.	.	_	.	.	.	.	.
.	.	.	.	.	.	.	.	.	.
.	.	Show	.	.	.	.	.	.	.
=127	=127	=127	=127	=127	=127	=127	=127	=127	=127
1i	E-:min	_	.	.	.	217.663	newline	voice	1E- 1g- 1b-
.	.	in'	.	.	.	.	.	.	.
.	.	how	.	.	.	.	.	.	.
.	.	.	.	.	.	.	.	.	.
.	.	fun-	.	.	.	.	.	.	.
.	.	-ky	.	Hee	b	.	.	.	.
.	.	.	.	.	.	.	.	.	.
.	.	strong	.	hee	.	.	.	.	.
=128	=128	=128	=128	=128	=128	=128	=128	=128	=128
1-VII	D-:maj	_	.	_	.	219.392	.	voice	1D- 1f 1a-
.	.	is	.	.	.	.	.	.	.
.	.	your	.	.	.	.	.	.	.
.	.	.	.	.	.	.	.	.	.
.	.	fight	.	Hee	D	.	.	.	.
.	.	.	.	.	.	.	.	.	.
.	.	.	.	.	.	.	.	.	.
.	.	It	.	Hee	.	.	.	.	.
=129	=129	=129	=129	=129	=129	=129	=129	=129	=129
1i	E-:min	_	.	.	.	221.121	.	voice	1E- 1g- 1b-
.	.	does-	.	hee	.	.	.	.	.
.	.	-n't	.	_	.	.	.	.	.
.	.	.	.	.	.	.	.	.	.
.	.	mat-	.	.	.	.	.	.	.
.	.	-ter	.	.	.	.	.	.	.
.	.	.	.	.	.	.	.	.	.
.	.	who's	.	.	.	.	.	.	.
=130	=130	=130	=130	=130	=130	=130	=130	=130	=130
1-VII	D-:maj	_	.	.	.	222.85	.	voice	1D- 1f 1a-
.	.	wrong	.	.	.	.	.	.	.
.	.	or	.	.	.	.	.	.	.
.	.	.	.	.	.	.	.	.	.
.	.	right	.	.	D	.	.	.	.
.	.	.	.	.	.	.	.	.	.
.	.	Just	.	.	.	.	.	.	.
=131	=131	=131	=131	=131	=131	=131	=131	=131	=131
1i	E-:min	beat	.	.	B	224.579	newline	voice	1E- 1g- 1b-
.	.	it	.	.	.	.	.	.	.
.	.	.	Beat	.	B	.	.	.	.
.	.	.	it	.	.	.	.	.	.
=132	=132	=132	=132	=132	=132	=132	=132	=132	=132
1-VII	D-:maj	Beat	.	.	B	226.31	.	voice	1D- 1f 1a-
.	.	it	.	.	.	.	.	.	.
.	.	.	.	Beat	B	.	.	.	.
.	.	.	Beat	.	.	.	.	.	.
.	.	.	it	it	.	.	.	.	.
.	.	.	.	_	.	.	.	.	.
.	.	No	No	.	.	.	.	.	.
=133	=133	=133	=133	=133	=133	=133	=133	=133	=133
1i	E-:min	_	_	.	.	228.041	.	voice	1E- 1g- 1b-
.	.	one	one	.	.	.	.	.	.
.	.	wants	wants	.	.	.	.	.	.
.	.	to	to	.	.	.	.	.	.
.	.	be	be	.	B	.	.	.	.
.	.	de-	de-	.	b	.	.	.	.
.	.	-feat	-feat-	.	B	.	.	.	.
=134	=134	=134	=134	=134	=134	=134	=134	=134	=134
1-VII	D-:maj	_	_	.	.	229.771	.	voice	1D- 1f 1a-
.	.	ed	-ed	Oh	.	.	.	.	.
.	.	.	.	no	.	.	.	.	.
.	.	.	.	_	.	.	.	.	.
.	.	.	.	_	.	.	.	.	.
.	.	.	.	.	.	.	.	.	.
.	.	.	.	.	.	.	.	.	.
.	.	Show	.	.	.	.	.	.	.
=135	=135	=135	=135	=135	=135	=135	=135	=135	=135
1i	E-:min	_	.	.	.	231.502	newline	voice	1E- 1g- 1b-
.	.	in'	.	.	.	.	.	.	.
.	.	how	.	.	.	.	.	.	.
.	.	.	.	Hee	.	.	.	.	.
.	.	fun-	.	.	.	.	.	.	.
.	.	-ky	.	.	b	.	.	.	.
.	.	.	.	hee	.	.	.	.	.
.	.	strong	.	.	.	.	.	.	.
=136	=136	=136	=136	=136	=136	=136	=136	=136	=136
1-VII	D-:maj	_	.	.	.	233.231	.	voice	1D- 1f 1a-
.	.	is	.	.	.	.	.	.	.
.	.	your	.	.	.	.	.	.	.
.	.	.	.	hee	.	.	.	.	.
.	.	fight	.	.	D	.	.	.	.
.	.	.	.	.	.	.	.	.	.
.	.	.	.	hee	.	.	.	.	.
.	.	It	.	.	.	.	.	.	.
=137	=137	=137	=137	=137	=137	=137	=137	=137	=137
1i	E-:min	_	.	.	.	234.96	.	voice	1E- 1g- 1b-
.	.	does-	.	.	.	.	.	.	.
.	.	-n't	.	.	.	.	.	.	.
.	.	.	.	.	.	.	.	.	.
.	.	mat-	.	.	.	.	.	.	.
.	.	-ter	.	hee	.	.	.	.	.
.	.	.	.	.	.	.	.	.	.
.	.	who's	.	.	.	.	.	.	.
=138	=138	=138	=138	=138	=138	=138	=138	=138	=138
1-VII	D-:maj	_	.	.	.	236.689	.	voice	1D- 1f 1a-
.	.	wrong	.	.	.	.	.	.	.
.	.	or	.	.	.	.	.	.	.
.	.	.	.	.	.	.	.	.	.
.	.	right	.	.	D	.	.	.	.
.	.	.	.	.	.	.	.	.	.
.	.	Just	.	.	.	.	.	.	.
=139	=139	=139	=139	=139	=139	=139	=139	=139	=139
1i	E-:min	beat	.	.	B	238.418	newline	voice	1E- 1g- 1b-
.	.	it	.	.	.	.	.	.	.
.	.	.	Beat	.	B	.	.	.	.
.	.	.	it	.	.	.	.	.	.
=140	=140	=140	=140	=140	=140	=140	=140	=140	=140
1-VII	D-:maj	Beat	.	.	B	240.153	.	voice	1D- 1f 1a-
.	.	it	.	.	.	.	.	.	.
.	.	.	Beat	.	B	.	.	.	.
.	.	.	it	.	.	.	.	.	.
.	.	.	.	.	.	.	.	.	.
.	.	No	No	.	.	.	.	.	.
=141	=141	=141	=141	=141	=141	=141	=141	=141	=141
1i	E-:min	_	_	.	.	241.888	.	voice	1E- 1g- 1b-
.	.	one	one	.	.	.	.	.	.
.	.	wants	wants	.	.	.	.	.	.
.	.	to	to	.	.	.	.	.	.
.	.	be	be	.	B	.	.	.	.
.	.	de-	de-	.	b	.	.	.	.
.	.	-feat	-feat-	.	B	.	.	.	.
=142	=142	=142	=142	=142	=142	=142	=142	=142	=142
1-VII	D-:maj	_	_	.	.	243.623	.	voice	1D- 1f 1a-
.	.	ed	-ed	.	.	.	.	.	.
.	.	.	.	.	.	.	.	.	.
.	.	.	.	.	.	.	.	.	.
.	.	.	.	.	.	.	.	.	.
.	.	Show	.	.	.	.	.	.	.
=143	=143	=143	=143	=143	=143	=143	=143	=143	=143
*>Label>>Fadeout	*>Label>>Fadeout	*>Label>>Fadeout	*>Label>>Fadeout	*>Label>>Fadeout	*>Label>>Fadeout	*>Label>>Fadeout	*>Label>>Fadeout	*>Label>>Fadeout	*>Label>>Fadeout
1i	E-:min	_	.	.	.	245.359	newline	voice	1E- 1g- 1b-
.	.	in'	.	.	.	.	.	.	.
.	.	how	.	.	.	.	.	.	.
.	.	.	.	.	.	.	.	.	.
.	.	fun-	.	.	.	.	.	.	.
.	.	-ky	.	.	b	.	.	.	.
.	.	.	.	.	.	.	.	.	.
.	.	strong	.	.	.	.	.	.	.
=144	=144	=144	=144	=144	=144	=144	=144	=144	=144
1-VII	D-:maj	_	.	.	.	247.084	.	voice	1D- 1f 1a-
.	.	is	.	.	.	.	.	.	.
.	.	your	.	.	.	.	.	.	.
.	.	.	.	.	.	.	.	.	.
.	.	fight	.	.	D	.	.	.	.
.	.	.	.	.	.	.	.	.	.
.	.	.	.	.	.	.	.	.	.
.	.	It	.	.	.	.	.	.	.
=145	=145	=145	=145	=145	=145	=145	=145	=145	=145
1i	E-:min	_	.	.	.	248.81	.	voice	1E- 1g- 1b-
.	.	does-	.	.	.	.	.	.	.
.	.	-n't	.	.	.	.	.	.	.
.	.	.	.	.	.	.	.	.	.
.	.	mat-	.	.	.	.	.	.	.
.	.	-ter	.	.	.	.	.	.	.
.	.	.	.	.	.	.	.	.	.
.	.	who's	.	.	.	.	.	.	.
=146	=146	=146	=146	=146	=146	=146	=146	=146	=146
1-VII	D-:maj	_	.	.	.	250.535	.	voice	1D- 1f 1a-
.	.	wrong	.	.	.	.	.	.	.
.	.	or	.	.	.	.	.	.	.
.	.	.	.	.	.	.	.	.	.
.	.	right	.	.	D	.	.	.	.
.	.	.	.	.	.	.	.	.	.
.	.	Just	.	.	.	.	.	.	.
=147	=147	=147	=147	=147	=147	=147	=147	=147	=147
1i	E-:min	beat	.	.	B	252.261	newline	voice	1E- 1g- 1b-
.	.	it	.	.	.	.	.	.	.
.	.	.	Beat	.	B	.	.	.	.
.	.	.	it	.	.	.	.	.	.
=148	=148	=148	=148	=148	=148	=148	=148	=148	=148
1-VII	D-:maj	Beat	.	.	B	253.399	.	voice	1D- 1f 1a-
.	.	it	.	.	.	.	.	.	.
.	.	.	Beat	.	B	.	.	.	.
.	.	.	it	.	.	.	.	.	.
.	.	.	.	.	.	.	.	.	.
.	.	No	No	.	.	.	.	.	.
=149	=149	=149	=149	=149	=149	=149	=149	=149	=149
1i	E-:min	_	_	.	.	254.537	.	voice	1E- 1g- 1b-
.	.	one	one	.	.	.	.	.	.
.	.	wants	wants	.	.	.	.	.	.
.	.	to	to	.	.	.	.	.	.
.	.	be	be	.	B	.	.	.	.
.	.	de-	de-	.	b	.	.	.	.
.	.	-feat	-feat-	.	B	.	.	.	.
=150	=150	=150	=150	=150	=150	=150	=150	=150	=150
1-VII	D-:maj	_	_	.	.	255.675	.	voice	1D- 1f 1a-
.	.	ed	-ed	.	.	.	.	.	.
.	.	.	.	.	.	.	.	.	.
.	.	.	.	.	.	.	.	.	.
1r;	N	.	.	.	.	256.813	.	r	1r;
1r;	N	.	.	.	.	257.934	.	r	1r;
*-	*-	*-	*-	*-	*-	*-	*-	*-	*-
!!!BillboardChartDate: 1983/04/02
!!!BillboardPeak: 1
!!!BillboardWeeksOnChart: 25
!!!COC: Michael Jackson
!!!ENC: Nathaniel Condit-Schultz
!!!EST: Awating manual error checking and editing.
!!!OTL: Beat It
!!!RDF**harte: Chris Harte's syntax, used by MIREX
!!!RDF**harmony: **recip + pitch class of root + harmonic quality
!!!RDF**leadinstrument: original McGill primary instrumentation annotation
!!!RDF**phrase: newline = linebreak in original McGill transcription
!!!RDF**timestamp: McGill audio timestamp in seconds
!!!RDT: 2017/01/12/
!!!SampleActualRank: 14
!!!SampleID#: 0629
!!!SampleTargetRank: 14
!!!MBID: de798de6-70fc-49f6-b580-339cd2e62052
